; generated by PrusaSlicer 2.2.0 on 2020-12-15 at 13:03:46 UTC

; 

; external perimeters extrusion width = 0.45mm
; perimeters extrusion width = 0.45mm
; infill extrusion width = 0.45mm
; solid infill extrusion width = 0.45mm
; top infill extrusion width = 0.40mm
; first layer extrusion width = 0.42mm

M201 X9000 Y9000 Z500 E10000 ; sets maximum accelerations, mm/sec^2
M203 X500 Y500 Z12 E120 ; sets maximum feedrates, mm/sec
M204 P1500 R1500 T1500 ; sets acceleration (P, T) and retract acceleration (R), mm/sec^2
M205 X10.00 Y10.00 Z0.20 E2.50 ; sets the jerk limits, mm/sec
M205 S0 T0 ; sets the minimum extruding and travel feed rate, mm/sec
M107
M104 S190 ; set temperature
G28 ; home all axes
;G1 Z5 F5000 ; lift nozzle
M109 S190 ; set temperature and wait for it to be reached
G21 ; set units to millimeters
G90 ; use absolute coordinates
M82 ; use absolute distances for extrusion
G92 E0
; Filament gcode
G1 Z0.350 F7800.000
G1 E-2.00000 F2400.00000
G92 E0
G1 X73.778 Y72.323 F7800.000
G1 E2.00000 F2400.00000
G1 F1800.000
G1 X76.837 Y69.467 E2.21003
G1 X80.251 Y66.972 E2.42224
G1 X84.891 Y64.431 E2.68771
G1 X88.798 Y62.900 E2.89832
G1 X93.189 Y61.774 E3.12582
G1 X97.693 Y61.204 E3.35363
G1 X101.890 Y61.190 E3.56428
G1 X107.156 Y61.850 E3.83065
G1 X111.254 Y62.917 E4.04317
G1 X115.441 Y64.574 E4.26912
G1 X119.799 Y67.008 E4.51964
G1 X123.186 Y69.487 E4.73028
G1 X126.481 Y72.582 E4.95716
G1 X129.628 Y76.442 E5.20709
G1 X131.864 Y79.993 E5.41770
G1 X133.799 Y84.113 E5.64614
G1 X135.197 Y88.412 E5.87301
G1 X135.999 Y92.545 E6.08429
G1 X136.342 Y97.674 E6.34227
G1 X136.060 Y102.018 E6.56073
G1 X135.286 Y106.143 E6.77137
G1 X133.790 Y110.860 E7.01972
G1 X131.653 Y115.317 E7.26775
G1 X129.397 Y118.848 E7.47809
G1 X126.596 Y122.245 E7.69904
G1 X123.196 Y125.455 E7.93371
G1 X119.789 Y127.949 E8.14560
G1 X105.989 Y137.110 E8.97689
G1 X104.701 Y137.800 E9.05021
G1 X103.148 Y138.370 E9.13320
G1 X102.120 Y138.620 E9.18634
G1 X101.066 Y138.766 E9.23972
G1 X99.487 Y138.807 E9.31899
G1 X97.948 Y138.633 E9.39672
G1 X96.548 Y138.282 E9.46912
G1 X95.181 Y137.746 E9.54285
G1 X93.916 Y137.051 E9.61527
G1 X80.207 Y127.946 E10.44121
G1 X76.790 Y125.444 E10.65372
G1 X73.327 Y122.157 E10.89337
G1 X70.600 Y118.844 E11.10870
G1 X68.340 Y115.307 E11.31935
G1 X66.192 Y110.815 E11.56925
G1 X64.803 Y106.538 E11.79488
G1 X63.999 Y102.400 E12.00646
G1 X63.658 Y97.277 E12.26414
G1 X63.940 Y92.933 E12.48260
G1 X64.714 Y88.807 E12.69324
G1 X66.226 Y84.050 E12.94377
G1 X68.142 Y79.983 E13.16940
G1 X70.396 Y76.405 E13.38161
G1 X73.740 Y72.369 E13.64465
G1 E11.64465 F2400.00000
G92 E0
G1 X103.690 Y126.427 F7800.000
G1 E2.00000 F2400.00000
G1 F1800.000
G1 X103.756 Y127.475 E2.05271
G1 X103.727 Y127.946 E2.07639
G1 X103.638 Y128.410 E2.10006
G1 X103.493 Y128.858 E2.12374
G1 X103.292 Y129.285 E2.14741
G1 X103.039 Y129.683 E2.17109
G1 X102.738 Y130.047 E2.19476
G1 X102.394 Y130.370 E2.21843
G1 X102.013 Y130.647 E2.24210
G1 X101.599 Y130.874 E2.26578
G1 X101.161 Y131.048 E2.28945
G1 X100.704 Y131.165 E2.31313
G1 X100.236 Y131.224 E2.33680
G1 X99.764 Y131.224 E2.36048
G1 X99.296 Y131.165 E2.38415
G1 X98.839 Y131.048 E2.40783
G1 X98.401 Y130.874 E2.43150
G1 X97.987 Y130.647 E2.45518
G1 X97.606 Y130.370 E2.47885
G1 X97.262 Y130.047 E2.50252
G1 X96.961 Y129.683 E2.52619
G1 X96.708 Y129.285 E2.54987
G1 X96.507 Y128.858 E2.57355
G1 X96.362 Y128.410 E2.59722
G1 X96.273 Y127.946 E2.62089
G1 X96.244 Y127.475 E2.64457
G1 X96.310 Y126.427 E2.69728
G1 X98.164 Y126.661 E2.79107
G1 X101.836 Y126.661 E2.97538
G1 X103.631 Y126.435 E3.06616
G1 X103.369 Y126.815 F7800.000
G1 F1800.000
G1 X103.411 Y127.475 E3.09935
G1 X103.384 Y127.903 E3.12085
G1 X103.304 Y128.324 E3.14235
G1 X103.171 Y128.731 E3.16384
G1 X102.989 Y129.119 E3.18534
G1 X102.759 Y129.480 E3.20684
G1 X102.486 Y129.810 E3.22833
G1 X102.174 Y130.103 E3.24982
G1 X101.828 Y130.355 E3.27132
G1 X101.452 Y130.562 E3.29282
G1 X101.054 Y130.719 E3.31432
G1 X100.639 Y130.826 E3.33581
G1 X100.214 Y130.879 E3.35731
G1 X99.786 Y130.879 E3.37880
G1 X99.361 Y130.826 E3.40030
G1 X98.946 Y130.719 E3.42180
G1 X98.548 Y130.562 E3.44329
G1 X98.172 Y130.355 E3.46479
G1 X97.826 Y130.103 E3.48629
G1 X97.514 Y129.810 E3.50778
G1 X97.241 Y129.480 E3.52928
G1 X97.011 Y129.119 E3.55077
G1 X96.829 Y128.731 E3.57227
G1 X96.696 Y128.324 E3.59377
G1 X96.616 Y127.903 E3.61526
G1 X96.589 Y127.475 E3.63676
G1 X96.631 Y126.815 E3.66995
G1 X98.142 Y127.006 E3.74640
G1 X101.858 Y127.006 E3.93289
G1 X103.310 Y126.823 E4.00633
G1 X103.769 Y126.794 F7800.000
G1 X101.815 Y126.316
G1 F1800.000
G1 X98.185 Y126.316 E4.18845
G1 X96.287 Y126.077 E4.28448
G1 X94.585 Y125.862 E4.37058
G1 X91.070 Y124.959 E4.55271
G1 X87.696 Y123.623 E4.73484
G1 X84.516 Y121.875 E4.91696
G1 X81.580 Y119.742 E5.09909
G1 X78.934 Y117.257 E5.28122
G1 X76.621 Y114.461 E5.46334
G1 X74.676 Y111.397 E5.64547
G1 X73.131 Y108.113 E5.82760
G1 X72.010 Y104.662 E6.00972
G1 X71.330 Y101.097 E6.19185
G1 X71.102 Y97.475 E6.37398
G1 X71.330 Y93.853 E6.55611
G1 X72.010 Y90.289 E6.73823
G1 X73.131 Y86.837 E6.92036
G1 X74.676 Y83.554 E7.10249
G1 X76.621 Y80.489 E7.28461
G1 X78.934 Y77.693 E7.46674
G1 X81.580 Y75.209 E7.64887
G1 X84.516 Y73.076 E7.83099
G1 X87.696 Y71.328 E8.01312
G1 X91.070 Y69.992 E8.19525
G1 X94.585 Y69.089 E8.37737
G1 X98.185 Y68.634 E8.55950
G1 X101.815 Y68.634 E8.74163
G1 X105.415 Y69.089 E8.92376
G1 X108.930 Y69.992 E9.10588
G1 X112.304 Y71.328 E9.28801
G1 X115.484 Y73.076 E9.47014
G1 X118.420 Y75.209 E9.65226
G1 X121.066 Y77.693 E9.83439
G1 X123.379 Y80.489 E10.01652
G1 X125.324 Y83.554 E10.19865
G1 X126.869 Y86.837 E10.38077
G1 X127.990 Y90.289 E10.56290
G1 X128.670 Y93.853 E10.74503
G1 X128.898 Y97.475 E10.92715
G1 X128.670 Y101.097 E11.10928
G1 X127.990 Y104.662 E11.29141
G1 X126.869 Y108.113 E11.47353
G1 X125.324 Y111.397 E11.65566
G1 X123.379 Y114.461 E11.83779
G1 X121.066 Y117.257 E12.01991
G1 X118.420 Y119.742 E12.20204
G1 X115.484 Y121.875 E12.38417
G1 X112.304 Y123.623 E12.56629
G1 X108.930 Y124.959 E12.74842
G1 X105.415 Y125.862 E12.93055
G1 X101.874 Y126.309 E13.10966
G1 E11.10966 F2400.00000
G92 E0
G1 X104.174 Y126.366 F7800.000
G1 E2.00000 F2400.00000
G1 F1800.000
G1 X104.244 Y127.475 E2.05578
G1 X104.210 Y128.007 E2.08253
G1 X104.110 Y128.531 E2.10928
G1 X103.946 Y129.038 E2.13602
G1 X103.719 Y129.520 E2.16277
G1 X103.433 Y129.970 E2.18951
G1 X103.093 Y130.380 E2.21625
G1 X102.705 Y130.745 E2.24300
G1 X102.274 Y131.058 E2.26974
G1 X101.807 Y131.315 E2.29649
G1 X101.311 Y131.511 E2.32323
G1 X100.795 Y131.644 E2.34998
G1 X100.266 Y131.711 E2.37672
G1 X99.734 Y131.711 E2.40347
G1 X99.205 Y131.644 E2.43021
G1 X98.689 Y131.511 E2.45696
G1 X98.193 Y131.315 E2.48370
G1 X97.726 Y131.058 E2.51045
G1 X97.295 Y130.745 E2.53719
G1 X96.907 Y130.380 E2.56394
G1 X96.567 Y129.970 E2.59068
G1 X96.281 Y129.520 E2.61743
G1 X96.054 Y129.038 E2.64417
G1 X95.890 Y128.531 E2.67092
G1 X95.790 Y128.007 E2.69766
G1 X95.756 Y127.475 E2.72441
G1 X95.826 Y126.366 E2.78019
G1 X94.520 Y126.201 E2.84625
G1 X90.963 Y125.288 E3.03056
G1 X87.549 Y123.936 E3.21486
G1 X84.330 Y122.167 E3.39917
G1 X81.359 Y120.008 E3.58347
G1 X78.682 Y117.494 E3.76778
G1 X76.341 Y114.664 E3.95208
G1 X74.374 Y111.564 E4.13639
G1 X72.810 Y108.241 E4.32069
G1 X71.675 Y104.748 E4.50499
G1 X70.987 Y101.141 E4.68930
G1 X70.756 Y97.475 E4.87360
G1 X70.987 Y93.810 E5.05791
G1 X71.675 Y90.203 E5.24221
G1 X72.810 Y86.710 E5.42652
G1 X74.374 Y83.387 E5.61082
G1 X76.341 Y80.286 E5.79513
G1 X78.682 Y77.457 E5.97943
G1 X81.359 Y74.943 E6.16374
G1 X84.330 Y72.784 E6.34804
G1 X87.549 Y71.015 E6.53235
G1 X90.963 Y69.663 E6.71665
G1 X94.520 Y68.750 E6.90096
G1 X98.164 Y68.289 E7.08526
G1 X101.836 Y68.289 E7.26957
G1 X105.480 Y68.750 E7.45387
G1 X109.037 Y69.663 E7.63818
G1 X112.451 Y71.015 E7.82248
G1 X115.670 Y72.784 E8.00679
G1 X118.641 Y74.943 E8.19109
G1 X121.318 Y77.457 E8.37540
G1 X123.659 Y80.286 E8.55970
G1 X125.626 Y83.387 E8.74401
G1 X127.190 Y86.710 E8.92831
G1 X128.325 Y90.203 E9.11262
G1 X129.013 Y93.810 E9.29692
G1 X129.244 Y97.475 E9.48123
G1 X129.013 Y101.141 E9.66553
G1 X128.325 Y104.748 E9.84984
G1 X127.190 Y108.241 E10.03414
G1 X125.626 Y111.564 E10.21845
G1 X123.659 Y114.664 E10.40275
G1 X121.318 Y117.494 E10.58706
G1 X118.641 Y120.008 E10.77136
G1 X115.670 Y122.167 E10.95567
G1 X112.451 Y123.936 E11.13997
G1 X109.037 Y125.288 E11.32428
G1 X105.480 Y126.201 E11.50858
G1 X104.233 Y126.358 E11.57163
G1 X104.538 Y126.668 F7800.000
G1 F1800.000
G1 X104.589 Y127.475 E11.61225
G1 X104.553 Y128.051 E11.64117
G1 X104.445 Y128.617 E11.67010
G1 X104.267 Y129.165 E11.69902
G1 X104.022 Y129.686 E11.72794
G1 X103.713 Y130.173 E11.75686
G1 X103.345 Y130.617 E11.78579
G1 X102.925 Y131.011 E11.81471
G1 X102.459 Y131.350 E11.84363
G1 X101.954 Y131.628 E11.87256
G1 X101.418 Y131.840 E11.90148
G1 X100.860 Y131.983 E11.93040
G1 X100.288 Y132.055 E11.95932
G1 X99.712 Y132.055 E11.98825
G1 X99.140 Y131.983 E12.01717
G1 X98.582 Y131.840 E12.04609
G1 X98.046 Y131.628 E12.07501
G1 X97.541 Y131.350 E12.10394
G1 X97.075 Y131.011 E12.13286
G1 X96.655 Y130.617 E12.16178
G1 X96.287 Y130.173 E12.19071
G1 X95.978 Y129.686 E12.21963
G1 X95.733 Y129.165 E12.24855
G1 X95.555 Y128.617 E12.27747
G1 X95.447 Y128.051 E12.30640
G1 X95.411 Y127.475 E12.33532
G1 X95.462 Y126.668 E12.37594
G1 X94.456 Y126.540 E12.42683
G1 X90.856 Y125.616 E12.61332
G1 X87.402 Y124.248 E12.79980
G1 X84.145 Y122.458 E12.98628
G1 X81.139 Y120.274 E13.17276
G1 X78.430 Y117.731 E13.35925
G1 X76.062 Y114.867 E13.54573
G1 X74.071 Y111.730 E13.73221
G1 X72.489 Y108.368 E13.91870
G1 X71.340 Y104.834 E14.10518
G1 X70.644 Y101.184 E14.29166
G1 X70.411 Y97.475 E14.47815
G1 X70.644 Y93.767 E14.66463
G1 X71.340 Y90.117 E14.85111
G1 X72.489 Y86.583 E15.03759
G1 X74.071 Y83.221 E15.22408
G1 X76.062 Y80.083 E15.41056
G1 X78.430 Y77.220 E15.59704
G1 X81.139 Y74.676 E15.78353
G1 X84.145 Y72.492 E15.97001
G1 X87.402 Y70.702 E16.15649
G1 X90.856 Y69.334 E16.34297
G1 X94.456 Y68.410 E16.52946
G1 X98.142 Y67.945 E16.71594
G1 X101.858 Y67.945 E16.90242
G1 X105.544 Y68.410 E17.08891
G1 X109.144 Y69.334 E17.27539
G1 X112.598 Y70.702 E17.46187
G1 X115.855 Y72.492 E17.64835
G1 X118.861 Y74.676 E17.83484
G1 X121.570 Y77.220 E18.02132
G1 X123.938 Y80.083 E18.20780
G1 X125.929 Y83.221 E18.39429
G1 X127.511 Y86.583 E18.58077
G1 X128.660 Y90.117 E18.76725
G1 X129.356 Y93.767 E18.95373
G1 X129.589 Y97.475 E19.14022
G1 X129.356 Y101.184 E19.32670
G1 X128.660 Y104.834 E19.51318
G1 X127.511 Y108.368 E19.69966
G1 X125.929 Y111.730 E19.88615
G1 X123.938 Y114.867 E20.07263
G1 X121.570 Y117.731 E20.25911
G1 X118.861 Y120.274 E20.44560
G1 X115.855 Y122.458 E20.63208
G1 X112.598 Y124.248 E20.81856
G1 X109.144 Y125.616 E21.00505
G1 X105.544 Y126.540 E21.19153
G1 X104.598 Y126.660 E21.23941
G1 X104.141 Y126.714 F7800.000
G1 X103.921 Y126.224
G1 F1800.000
G1 X104.000 Y127.471 E21.26512
G1 X104.000 Y127.475 E21.26521
G1 X104.000 Y127.480 E21.26530
G1 X103.969 Y127.972 E21.27545
G1 X103.968 Y127.977 E21.27554
G1 X103.968 Y127.981 E21.27563
G1 X103.875 Y128.466 E21.28579
G1 X103.874 Y128.470 E21.28588
G1 X103.873 Y128.474 E21.28597
G1 X103.720 Y128.944 E21.29612
G1 X103.719 Y128.948 E21.29621
G1 X103.717 Y128.952 E21.29631
G1 X103.507 Y129.398 E21.30646
G1 X103.505 Y129.402 E21.30655
G1 X103.503 Y129.406 E21.30664
G1 X103.238 Y129.823 E21.31679
G1 X103.236 Y129.826 E21.31688
G1 X103.233 Y129.830 E21.31698
G1 X102.919 Y130.210 E21.32713
G1 X102.916 Y130.213 E21.32722
G1 X102.913 Y130.217 E21.32731
G1 X102.553 Y130.554 E21.33746
G1 X102.550 Y130.557 E21.33756
G1 X102.546 Y130.560 E21.33765
G1 X102.147 Y130.850 E21.34780
G1 X102.143 Y130.853 E21.34789
G1 X102.139 Y130.855 E21.34798
G1 X101.707 Y131.093 E21.35813
G1 X101.703 Y131.095 E21.35823
G1 X101.699 Y131.096 E21.35832
G1 X101.240 Y131.278 E21.36847
G1 X101.236 Y131.280 E21.36856
G1 X101.232 Y131.281 E21.36865
G1 X100.754 Y131.403 E21.37880
G1 X100.750 Y131.404 E21.37889
G1 X100.745 Y131.405 E21.37898
G1 X100.256 Y131.467 E21.38913
G1 X100.251 Y131.467 E21.38922
G1 X100.247 Y131.467 E21.38932
G1 X99.753 Y131.467 E21.39946
G1 X99.749 Y131.467 E21.39955
G1 X99.744 Y131.467 E21.39965
G1 X99.255 Y131.405 E21.40979
G1 X99.250 Y131.404 E21.40989
G1 X99.246 Y131.403 E21.40998
G1 X98.768 Y131.281 E21.42013
G1 X98.764 Y131.280 E21.42022
G1 X98.760 Y131.278 E21.42031
G1 X98.301 Y131.096 E21.43046
G1 X98.297 Y131.095 E21.43055
G1 X98.293 Y131.093 E21.43064
G1 X97.861 Y130.855 E21.44079
G1 X97.857 Y130.853 E21.44088
G1 X97.853 Y130.850 E21.44098
G1 X97.454 Y130.560 E21.45113
G1 X97.450 Y130.557 E21.45122
G1 X97.447 Y130.554 E21.45132
G1 X97.087 Y130.217 E21.46147
G1 X97.084 Y130.213 E21.46156
G1 X97.081 Y130.210 E21.46165
G1 X96.767 Y129.830 E21.47180
G1 X96.764 Y129.826 E21.47190
G1 X96.762 Y129.823 E21.47199
G1 X96.497 Y129.406 E21.48214
G1 X96.495 Y129.402 E21.48223
G1 X96.493 Y129.398 E21.48232
G1 X96.283 Y128.952 E21.49247
G1 X96.281 Y128.948 E21.49256
G1 X96.280 Y128.944 E21.49265
G1 X96.127 Y128.474 E21.50281
G1 X96.126 Y128.470 E21.50290
G1 X96.125 Y128.466 E21.50299
G1 X96.032 Y127.981 E21.51314
G1 X96.032 Y127.977 E21.51323
G1 X96.031 Y127.972 E21.51333
G1 X96.000 Y127.480 E21.52348
G1 X96.000 Y127.475 E21.52357
G1 X96.000 Y127.471 E21.52366
G1 X96.079 Y126.224 E21.54937
G1 E19.54937 F2400.00000
G92 E0
G1 X81.866 Y119.822 F7800.000
G1 E2.00000 F2400.00000
G1 F1800.000
G1 X79.118 Y117.073 E2.19624
G1 X76.808 Y114.273 E2.37952
G1 X82.959 Y120.424 E2.81870
G1 X84.714 Y121.689 E2.92794
G1 X75.956 Y112.930 E3.55331
G1 X75.103 Y111.587 E3.63361
G1 X85.804 Y122.288 E4.39764
G1 X86.894 Y122.887 E4.46043
G1 X74.570 Y110.563 E5.34038
G1 X74.134 Y109.636 E5.39209
G1 X87.939 Y123.441 E6.37776
G1 X88.751 Y123.763 E6.42186
G1 X73.698 Y108.709 E7.49666
G1 X73.372 Y108.018 E7.53523
G1 X73.312 Y107.833 E7.54504
G1 X89.563 Y124.084 E8.70534
G1 X90.375 Y124.406 E8.74945
G1 X73.076 Y107.106 E9.98461
G1 X72.840 Y106.380 E10.02319
G1 X91.181 Y124.720 E11.33271
G1 X91.841 Y124.890 E11.36712
G1 X72.604 Y105.653 E12.74064
G1 X72.368 Y104.926 E12.77922
G1 X92.501 Y125.059 E14.21673
G1 X93.161 Y125.229 E14.25114
G1 X72.197 Y104.265 E15.74794
G1 X72.082 Y103.659 E15.77910
G1 X93.821 Y125.398 E17.33128
G1 X94.482 Y125.568 E17.36569
G1 X71.966 Y103.052 E18.97327
G1 X71.850 Y102.446 E19.00444
G1 X95.066 Y125.662 E20.66199
G1 X95.627 Y125.733 E20.69057
G1 X71.735 Y101.840 E22.39649
G1 X71.619 Y101.234 E22.42765
G1 X96.189 Y125.803 E24.18192
G1 X96.751 Y125.874 E24.21050
G1 X71.563 Y100.687 E26.00887
G1 X71.530 Y100.163 E26.03536
G1 X97.312 Y125.945 E27.87618
G1 X97.874 Y126.016 E27.90476
G1 X71.497 Y99.640 E29.78803
G1 X71.464 Y99.116 E29.81451
G1 X98.406 Y126.058 E31.73813
G1 X98.897 Y126.058 E31.76290
G1 X71.431 Y98.592 E33.72390
G1 X71.398 Y98.069 E33.75039
G1 X99.387 Y126.058 E35.74877
G1 X99.878 Y126.058 E35.77354
G1 X71.366 Y97.545 E37.80932
G1 X71.386 Y97.075 E37.83306
G1 X100.369 Y126.058 E39.90238
G1 X100.859 Y126.058 E39.92715
G1 X71.415 Y96.614 E42.02943
G1 X71.444 Y96.152 E42.05279
G1 X101.350 Y126.058 E44.18803
G1 X101.836 Y126.053 E44.21256
G1 X71.473 Y95.690 E46.38042
G1 X71.502 Y95.229 E46.40377
G1 X102.272 Y125.998 E48.60066
G1 X102.707 Y125.943 E48.62283
G1 X71.532 Y94.767 E50.84875
G1 X71.561 Y94.306 E50.87210
G1 X103.143 Y125.888 E53.12705
G1 X103.579 Y125.833 E53.14922
G1 X71.594 Y93.848 E55.43288
G1 X71.673 Y93.436 E55.45406
G1 X104.014 Y125.778 E57.76321
G1 X104.450 Y125.723 E57.78538
G1 X71.751 Y93.024 E60.12002
G1 X71.830 Y92.612 E60.14120
G1 X104.885 Y125.668 E62.50133
G1 X105.321 Y125.613 E62.52350
G1 X71.909 Y92.200 E64.90913
G1 X71.987 Y91.788 E64.93031
G1 X105.716 Y125.517 E67.33853
G1 X106.107 Y125.417 E67.35888
G1 X72.066 Y91.376 E69.78937
G1 X72.144 Y90.964 E69.81055
G1 X106.497 Y125.317 E72.26330
G1 X106.887 Y125.216 E72.28365
G1 X72.223 Y90.552 E74.75867
G1 X72.261 Y90.353 E74.76888
G1 X72.323 Y90.161 E74.77906
G1 X107.278 Y125.116 E77.27480
G1 X107.668 Y125.016 E77.29515
G1 X72.443 Y89.791 E79.81017
G1 X72.564 Y89.421 E79.82983
G1 X108.059 Y124.916 E82.36414
G1 X108.449 Y124.815 E82.38449
G1 X72.684 Y89.050 E84.93808
